X: 13
T: Dunmore Lasses, The
Z: shanachie
S: https://thesession.org/tunes/462#setting50749
R: reel
M: 4/4
L: 1/8
K: Emin
"Em"E2EF GFGA|Bee2 Bee2|E2EF GABG|"Am7"AcBA "D"GEFD|
"Em"E2EF GFGA|Beed e2ef|"Am7"gefd edBG|"D9"AcBA "Em"GEED|
"Em"E2EF GFGA|Bee2 Bee2|E2EF GABG|"Am7"AcBA "D"GEFD|
"Em"E2EF GFGA|Beed e2ef|"Am7"gefd edBG|"D9"AcBA Beef||
"Em"g2eg "D"fedc|"Em"Bee2 Beef|"Em"g2eg "D"fedB|"Am7"AcBA "Em"GEE2|
"Em"g2eg "D"fedc|"Em"Beed e2ef|"Am7"gefd edBG|"D9"AcBA "Em"GEE2|
"Em"g2eg "D"fedc|"Em"Bee2 Beef|"Em"g2eg "D"fedB|"Am7"AcBA "Em"GEE2|
"Em"g2eg "D"fedc|"Em"Beed e2ef|"C"gefd edBG|"D9"AcBA GEED||

